symbols/web/flight_land/materialsymbolsrounded/flight_land_wght600gradN25_40px.svg

<svg xmlns="http://www.w3.org/2000/svg" height="40" width="40"><path d="M6.5 35.208q-.708 0-1.229-.5-.521-.5-.521-1.25t.521-1.25q.521-.5 1.229-.5h27q.708 0 1.229.5.521.5.521 1.25t-.521 1.25q-.521.5-1.229.5Zm25.083-8.625-25.5-7.125q-.583-.125-.937-.604-.354-.479-.354-1.062v-6.334q0-.75.541-1.145.542-.396 1.334-.146.25.083.541.354.292.271.375.562l1.042 3.125 7.958 2.167V5.333q0-.958.688-1.5.687-.541 1.646-.291.458.125.833.5.375.375.542.833l4.333 13.75 8.458 2.417q.959.291 1.563 1.062.604.771.604 1.771 0 1.417-1.146 2.271-1.146.854-2.521.437Z"/></svg>

<svg xmlns="http://www.w3.org/2000/svg" height="40" width="40"><path d="M6.5 35.208Q5.792 35.208 5.271 34.708Q4.75 34.208 4.75 33.458Q4.75 32.708 5.271 32.208Q5.792 31.708 6.5 31.708H33.5Q34.208 31.708 34.729 32.208Q35.25 32.708 35.25 33.458Q35.25 34.208 34.729 34.708Q34.208 35.208 33.5 35.208ZM31.583 26.583 6.083 19.458Q5.5 19.333 5.146 18.854Q4.792 18.375 4.792 17.792V11.458Q4.792 10.708 5.333 10.313Q5.875 9.917 6.667 10.167Q6.917 10.25 7.208 10.521Q7.5 10.792 7.583 11.083L8.625 14.208L16.583 16.375V5.333Q16.583 4.375 17.271 3.833Q17.958 3.292 18.917 3.542Q19.375 3.667 19.75 4.042Q20.125 4.417 20.292 4.875L24.625 18.625L33.083 21.042Q34.042 21.333 34.646 22.104Q35.25 22.875 35.25 23.875Q35.25 25.292 34.104 26.146Q32.958 27 31.583 26.583Z"/></svg>
